packages/fxa-settings/src/components/GetDataTrio/copy.svg

<svg viewBox="0 0 21 24" xmlns="http://www.w3.org/2000/svg"><path d="m20.5605 12.4395-4.5-4.5c-.2812-.28132-.6627-.43942-1.0605-.4395h-1.5v-1.5c-.0001-.39779-.1582-.77926-.4395-1.0605l-4.5-4.5c-.28124-.281324-.66271-.4395-1.0605-.4395h-4.5c-1.65685 0-3 1.34315-3 3v10.5c0 1.6569 1.34315 3 3 3h4.5v4.5c0 1.6569 1.34315 3 3 3h7.5c1.6569 0 3-1.3431 3-3v-7.5c0-.3978-.1582-.7793-.4395-1.0605zm-3.1815 1.0605h-2.379v-2.379zm-9.879-7.5h2.379l-2.379-2.379zm0 4.5v3h-4.5v-10.5h3v3.75c0 .41421.33579.75.75.75h3.75c-1.65685 0-3 1.34315-3 3zm3 0v10.5h7.5v-6h-3.75c-.4142 0-.75-.3358-.75-.75v-3.75z" fill-rule="evenodd"/></svg>

<svg viewBox="0 0 21 24" xmlns="http://www.w3.org/2000/svg"><path d="M20.56 12.44l-4.5-4.5A1.5 1.5 0 0015 7.5h-1.5V6a1.5 1.5 0 00-.44-1.06L8.56.44A1.5 1.5 0 007.5 0H3a3 3 0 00-3 3v10.5a3 3 0 003 3h4.5V21a3 3 0 003 3H18a3 3 0 003-3v-7.5a1.5 1.5 0 00-.44-1.06zM17.38 13.5H15v-2.379zM7.5 6h2.379L7.5 3.621zm0 4.5v3H3V3h3v3.75c0 .414.336.75.75.75h3.75a3 3 0 00-3 3zm3 0V21H18v-6h-3.75a.75.75 0 01-.75-.75V10.5z" fill-rule="evenodd"/></svg>
